!!!OTL: 376b. Anke van Tharau.
!!!ODT: 1644
!!!ARE: Europa, Mitteleuropa, Deutschland
!!!SCT: B0376B
!!!TXL: @@NDS
!!!YEM: Copyright 1995, estate of Helmut Schaffrath.
**kern	**text
*ICvox	*
*Ivox	*
*clefG2	*
*M3/2	*
*met(O|)	*
*k[]	*
*C:	*
=1	=1
{2gg	An-
2gg	-ke
2dd	van
=2	=2
2ee	Tha-
2ee	-rau
2dd	öß,
=3	=3
2cc	de
(4cc	my
4dd)	.
2ee	ge-
=4	=4
1.dd}	-föllt,
=5	=5
{2gg	An-
2gg	-ke
2dd	van
=6	=6
2ee	Tha-
2ee	-rau
2dd	öß,
=7	=7
2cc	de
(4cc	my
4dd)	.
2ee	ge-
=8	=8
1.dd}	-föllt,
=9	=9
{2ee	ſe
2ee	öß
2ff	mihn
=10	=10
2gg	Le-
2gg	-wen,
2ff	mihn
=11	=11
2ee	Gott
(4dd	on
4cc)	.
(4dd	mihn
4ee)	.
=12	=12
1.cc}	Gölt.
==	==
!!!AGN: Liebes - Lied, Liebes - Lust
!!!GTL: Liebeslieder - Liebeslust
!!!ONB: ESAC (Essen Associative Code) Database: BOEHME
!!!AMT: simple triple
!!!AIN: vox
!!!EED: Helmut Schaffrath
!!!EEV: 1.0
!!Aria incerti autoris (1644).
!!@@COMMENT:"Text und Mel. in "Fünfter Theil der Arien etlicher theils Geiſtlicher, theils Weltlichet, ʒur
!!Andacht, guten Sitten, keuſcher Liebe und Ehren-Luſt dienenden Lieder. Auff vnterſchiedliche Arten
!!ʒum Singen vnd Spielen geſetʒt von Heinrich Alberten." - Königsberg in Preuſſen 1645 Nr. 21.[...]"
!!(Erſte Ausgabe 1644, ſpäter noch andere erſchienen. ) Die beigedruckte Melodie iſt wahrſcheinlich
!!Volksweiſe, das läßt die Beifügung aria incerti autoris vermuthen.
!!@@END:
!!!Text: H. Albert
!!!URL-scan: https://archive.org/details/BoehmeVtLieder1895/page/n313/mode/2up
!!!ENC: Anna Maria Matuszewska
!!!EEV: 2024/05/07
*-	*-
